X:573
T:
S:Efter en gammal gotländsk visa om Halor såg m. m. i Rone;
S:upptecknad efter båtsman Hesselby i Rone
N:(en värs anföres, de övriga lämpa sig ej för tryck).
O:Gotland, Rone
R:vals
M:3/4
L:1/8
K:Bb
F|F B B c B G|A B c3 F|F B B c B G|A B c3 F|
w:Lass Ha-lass käl-liŋ-gi ha jär så laŋg, Lass Ha-lass käl-liŋ-gi ha jär så laŋg. Ha
d> d d2 c B|e> f e2 d2|c2 G G A F|B2 B2 z|]
w:jär så laŋg sum a kräu-nä-staŋg. Hej hof-fal-li-ral-li ra-jen.

